;FLAVOR:Marlin
;TIME:1790
;Filament used: 0.66527m
;Layer height: 0.1
;MINX:127.351
;MINY:83.353
;MINZ:0.2
;MAXX:169.85
;MAXY:116.635
;MAXZ:8
;Generated with Cura_SteamEngine 4.11.0
M140 S77
M105
M190 S77
M104 S250
M105
M109 S250
M82 ;absolute extrusion mode
; -- START GCODE -- 
M4002 P1 ;set heat program 1 
M1203 A88 D66 F1200 ;set higher accel and decel 
G28 X0 Y0 ;home XY 
G28 Z0 ;home Z
G91 ;set relative movements 
G0 F100 ;speed 100mm/sec 
G0 E20 ;extrude 20mm of filament
G90 ;absolute movements 
G0 X18 ;account for Craftbot offset
G92 X0 Y0 ;set new X and Y
; -- end of START GCODE --
G92 E0
G92 E0
G1 F1800 E-0.6
;LAYER_COUNT:79
;LAYER:0
M107
G0 F3600 X128.967 Y89.714 Z0.2
;TYPE:SKIRT
G1 F1800 E0
G1 F1500 X129.131 Y89.485 E0.00937
G1 X129.659 Y88.827 E0.03743
G1 X130.482 Y88.028 E0.07558
G1 X130.703 Y87.843 E0.08517
G1 X131.404 Y87.32 E0.11425
G1 X132.33 Y86.79 E0.14974
G1 X132.588 Y86.665 E0.15928
G1 X133.315 Y86.358 E0.18552
G1 X134.391 Y86.05 E0.22275
G1 X134.692 Y85.987 E0.23298
G1 X135.642 Y85.849 E0.26491
G1 X135.666 Y85.847 E0.26571
G1 X136.672 Y85.828 E0.29917
G1 X136.955 Y85.841 E0.3086
G1 X137.767 Y85.921 E0.33573
G1 X138.868 Y86.167 E0.37326
G1 X138.998 Y86.149 E0.37762
G1 X139.998 Y85.927 E0.41169
G1 X140.506 Y85.847 E0.4288
G1 X141.137 Y85.524 E0.45237
G1 X141.584 Y85.32 E0.46871
G1 X142.318 Y85.029 E0.49498
G1 X142.958 Y84.842 E0.51715
G1 X143.828 Y84.676 E0.54661
G1 X144.32 Y84.611 E0.56312
G1 X145.342 Y84.544 E0.59718
G1 X146.158 Y84.584 E0.62436
G1 X146.447 Y84.623 E0.63405
G1 X147.077 Y84.596 E0.65503
G1 X147.299 Y84.572 E0.66245
G1 X147.66 Y84.461 E0.67502
G1 X148.368 Y84.111 E0.70128
G1 X148.789 Y83.943 E0.71636
G1 X149.813 Y83.641 E0.75187
G1 X150.292 Y83.535 E0.76819
G1 X151.421 Y83.371 E0.80613
G1 X152.239 Y83.353 E0.83334
G1 X153.16 Y83.419 E0.86406
G1 X153.943 Y83.526 E0.89034
G1 X154.483 Y83.648 E0.90875
G1 X154.74 Y83.733 E0.91776
G1 X154.877 Y83.714 E0.92236
G1 X155.883 Y83.695 E0.95582
G1 X156.166 Y83.708 E0.96525
G1 X156.978 Y83.788 E0.99238
G1 X158.079 Y84.034 E1.02991
G1 X158.22 Y84.012 E1.03465
G1 X159.209 Y83.794 E1.06834
G1 X159.235 Y83.79 E1.06921
G1 X160.119 Y83.705 E1.09875
G1 X160.403 Y83.694 E1.1082
G1 X161.381 Y83.717 E1.14074
G1 X162.346 Y83.86 E1.17319
G1 X162.629 Y83.92 E1.18281
G1 X163.573 Y84.183 E1.2154
G1 X163.596 Y84.191 E1.21621
G1 X164.477 Y84.559 E1.24797
G1 X164.727 Y84.682 E1.25723
G1 X165.678 Y85.236 E1.29384
G1 X166.348 Y85.745 E1.32182
G1 X166.564 Y85.928 E1.33124
G1 X167.21 Y86.541 E1.36086
G1 X167.919 Y87.409 E1.39814
G1 X168.085 Y87.645 E1.40773
G1 X168.533 Y88.363 E1.43588
G1 X168.976 Y89.302 E1.47041
G1 X169.078 Y89.562 E1.4797
G1 X169.323 Y90.289 E1.50522
G1 X169.501 Y91.058 E1.53147
G1 X169.603 Y91.804 E1.55652
G1 X169.658 Y92.749 E1.588
G1 X169.595 Y93.737 E1.62093
G1 X169.536 Y94.133 E1.63424
G1 X169.597 Y94.6 E1.64991
G1 X169.652 Y95.546 E1.68143
G1 X169.588 Y96.541 E1.71459
G1 X169.553 Y96.81 E1.72361
G1 X169.633 Y97.404 E1.74355
G1 X169.688 Y98.35 E1.77506
G1 X169.624 Y99.345 E1.80823
G1 X169.605 Y99.496 E1.81329
G1 X169.725 Y100.226 E1.83789
G1 X169.78 Y101.175 E1.86951
G1 X169.716 Y102.17 E1.90267
G1 X169.672 Y102.49 E1.91342
G1 X169.749 Y103.068 E1.93281
G1 X169.804 Y104.014 E1.96433
G1 X169.74 Y105.009 E1.99749
G1 X169.701 Y105.304 E2.00739
G1 X169.796 Y105.906 E2.02766
G1 X169.85 Y106.848 E2.05904
G1 X169.787 Y107.836 E2.09197
G1 X169.751 Y108.118 E2.10142
G1 X169.539 Y109.182 E2.13751
G1 X169.267 Y110.007 E2.1664
G1 X169.162 Y110.274 E2.17594
G1 X168.711 Y111.225 E2.21095
G1 X168.253 Y111.952 E2.23953
G1 X168.089 Y112.183 E2.24895
G1 X167.525 Y112.888 E2.27898
G1 X166.697 Y113.686 E2.31723
G1 X166.478 Y113.868 E2.3267
G1 X165.799 Y114.373 E2.35484
G1 X164.895 Y114.892 E2.38951
G1 X164.637 Y115.018 E2.39906
G1 X163.911 Y115.328 E2.42532
G1 X162.826 Y115.641 E2.46288
G1 X162.523 Y115.705 E2.47318
G1 X161.559 Y115.846 E2.50558
G1 X161.535 Y115.848 E2.50638
G1 X160.533 Y115.867 E2.53971
G1 X160.247 Y115.854 E2.54924
G1 X159.47 Y115.78 E2.5752
G1 X158.695 Y115.628 E2.60146
G1 X158.299 Y115.518 E2.61513
G1 X158.239 Y115.536 E2.61722
G1 X157.161 Y115.775 E2.65394
G1 X157.134 Y115.779 E2.65485
G1 X156.294 Y115.857 E2.68291
G1 X156.011 Y115.868 E2.69233
G1 X155.06 Y115.847 E2.72397
G1 X155.036 Y115.845 E2.72477
G1 X154.044 Y115.698 E2.75812
G1 X153.765 Y115.638 E2.76761
G1 X152.893 Y115.393 E2.79774
G1 X152.514 Y115.424 E2.81039
G1 X151.725 Y115.448 E2.83664
G1 X151.05 Y115.406 E2.85914
G1 X150.139 Y115.256 E2.88984
G1 X150.103 Y115.279 E2.89126
G1 X149.297 Y115.726 E2.92192
G1 X148.544 Y116.043 E2.94909
G1 X147.972 Y116.225 E2.96906
G1 X147.501 Y116.355 E2.98531
G1 X146.73 Y116.526 E3.01157
G1 X146.122 Y116.605 E3.03197
G1 X145.142 Y116.635 E3.06458
G1 X144.648 Y116.619 E3.08102
G1 X143.861 Y116.553 E3.10728
G1 X143.431 Y116.483 E3.12177
G1 X142.377 Y116.209 E3.158
G1 X141.92 Y116.055 E3.17404
G1 X140.923 Y115.64 E3.20995
G1 X140.893 Y115.625 E3.21107
G1 X140.205 Y115.236 E3.23736
G1 X139.775 Y114.942 E3.25468
G1 X139.622 Y114.83 E3.26099
G1 X139.027 Y114.681 E3.28139
G1 X138.96 Y114.701 E3.28371
G1 X137.889 Y114.938 E3.3202
G1 X137.862 Y114.942 E3.32111
G1 X137.022 Y115.02 E3.34916
G1 X136.739 Y115.031 E3.35858
G1 X135.76 Y115.008 E3.39115
G1 X134.795 Y114.865 E3.4236
G1 X134.512 Y114.805 E3.43322
G1 X133.568 Y114.542 E3.46582
G1 X133.545 Y114.534 E3.46663
G1 X132.652 Y114.16 E3.49883
G1 X132.401 Y114.036 E3.50814
G1 X131.529 Y113.533 E3.54162
G1 X131.508 Y113.519 E3.54246
G1 X130.759 Y112.951 E3.57373
G1 X130.542 Y112.765 E3.58323
G1 X130.087 Y112.342 E3.60389
G1 X129.557 Y111.756 E3.63017
G1 X129.231 Y111.327 E3.64809
G1 X129.065 Y111.092 E3.65766
G1 X128.459 Y110.08 E3.6969
G1 X128.165 Y109.423 E3.72084
G1 X128.064 Y109.166 E3.73002
G1 X127.771 Y108.259 E3.76172
G1 X127.573 Y107.218 E3.79697
G1 X127.538 Y106.926 E3.80675
G1 X127.483 Y105.974 E3.83847
G1 X127.547 Y104.979 E3.87163
G1 X127.594 Y104.645 E3.88285
G1 X127.53 Y104.174 E3.89866
G1 X127.471 Y103.213 E3.93068
G1 X127.471 Y103.188 E3.93151
G1 X127.54 Y102.154 E3.96598
G1 X127.578 Y101.87 E3.97551
G1 X127.697 Y101.229 E3.99719
G1 X127.646 Y100.411 E4.02445
G1 X127.646 Y100.386 E4.02528
G1 X127.702 Y99.54 E4.05348
G1 X127.578 Y98.84 E4.07713
G1 X127.543 Y98.546 E4.08697
G1 X127.488 Y97.6 E4.11849
G1 X127.549 Y96.656 E4.14996
G1 X127.441 Y96.089 E4.16915
G1 X127.406 Y95.797 E4.17893
G1 X127.351 Y94.845 E4.21065
G1 X127.415 Y93.85 E4.24381
G1 X127.451 Y93.57 E4.2532
G1 X127.662 Y92.513 E4.28905
G1 X127.936 Y91.683 E4.31812
G1 X128.042 Y91.414 E4.32774
G1 X128.491 Y90.468 E4.36257
G1 X128.967 Y89.714 E4.39223
G0 F3600 X129.293 Y89.947
G1 F1500 X129.457 Y89.718 E4.40159
G1 X129.958 Y89.093 E4.42824
G1 X130.739 Y88.335 E4.46443
G1 X130.96 Y88.15 E4.47402
G1 X131.626 Y87.653 E4.50166
G1 X132.504 Y87.15 E4.53531
G1 X132.762 Y87.025 E4.54485
G1 X133.471 Y86.727 E4.57043
G1 X134.473 Y86.442 E4.60508
G1 X134.774 Y86.379 E4.61531
G1 X135.675 Y86.248 E4.64559
G1 X135.699 Y86.246 E4.64639
G1 X136.654 Y86.228 E4.67816
G1 X136.937 Y86.241 E4.68758
G1 X137.708 Y86.317 E4.71335
G1 X138.753 Y86.55 E4.74896
G1 X138.9 Y86.594 E4.75406
G1 X139.11 Y86.533 E4.76134
G1 X140.059 Y86.322 E4.79367
G1 X140.085 Y86.318 E4.79455
G1 X140.587 Y86.27 E4.81132
G1 X140.722 Y86.184 E4.81664
G1 X141.303 Y85.888 E4.83833
G1 X141.75 Y85.684 E4.85467
G1 X142.465 Y85.401 E4.88025
G1 X143.055 Y85.23 E4.90068
G1 X143.881 Y85.073 E4.92864
G1 X144.373 Y85.008 E4.94515
G1 X145.342 Y84.944 E4.97745
G1 X146.137 Y84.984 E5.00393
G1 X146.464 Y85.021 E5.01487
G1 X147.077 Y84.996 E5.03528
G1 X147.304 Y84.996 E5.04283
G1 X147.817 Y84.831 E5.06075
G1 X147.855 Y84.81 E5.06219
G1 X148.901 Y84.328 E5.1005
G1 X148.928 Y84.318 E5.10146
G1 X149.899 Y84.032 E5.13512
G1 X150.378 Y83.926 E5.15144
G1 X151.45 Y83.77 E5.18747
G1 X152.247 Y83.753 E5.21399
G1 X153.126 Y83.818 E5.2433
G1 X153.888 Y83.923 E5.26889
G1 X154.382 Y84.035 E5.28573
G1 X154.707 Y84.141 E5.2971
G1 X154.91 Y84.113 E5.30392
G1 X155.865 Y84.095 E5.33569
G1 X156.148 Y84.108 E5.34511
G1 X156.919 Y84.184 E5.37088
G1 X157.964 Y84.417 E5.40649
G1 X158.109 Y84.461 E5.41153
G1 X158.332 Y84.396 E5.41925
G1 X159.27 Y84.189 E5.4512
G1 X159.296 Y84.185 E5.45208
G1 X160.135 Y84.105 E5.48011
G1 X160.419 Y84.094 E5.48956
G1 X161.346 Y84.116 E5.5204
G1 X162.263 Y84.251 E5.55123
G1 X162.546 Y84.311 E5.56085
G1 X163.442 Y84.561 E5.59179
G1 X163.465 Y84.569 E5.5926
G1 X164.301 Y84.918 E5.62273
G1 X164.551 Y85.041 E5.632
G1 X165.453 Y85.567 E5.66673
G1 X166.089 Y86.05 E5.69329
G1 X166.305 Y86.233 E5.70271
G1 X166.919 Y86.816 E5.73087
G1 X167.592 Y87.64 E5.76625
G1 X167.758 Y87.876 E5.77585
G1 X168.184 Y88.557 E5.80257
G1 X168.604 Y89.448 E5.83533
G1 X168.706 Y89.708 E5.84462
G1 X168.938 Y90.399 E5.86886
G1 X169.111 Y91.149 E5.89446
G1 X169.206 Y91.851 E5.91802
G1 X169.258 Y92.749 E5.94794
G1 X169.198 Y93.686 E5.97917
G1 X169.131 Y94.123 E5.99388
G1 X169.2 Y94.647 E6.01145
G1 X169.252 Y95.546 E6.0414
G1 X169.192 Y96.49 E6.07287
G1 X169.149 Y96.804 E6.08341
G1 X169.236 Y97.451 E6.10512
G1 X169.288 Y98.35 E6.13507
G1 X169.228 Y99.294 E6.16653
G1 X169.201 Y99.507 E6.17367
G1 X169.328 Y100.273 E6.1995
G1 X169.38 Y101.175 E6.22955
G1 X169.32 Y102.119 E6.26101
G1 X169.267 Y102.483 E6.27324
G1 X169.352 Y103.115 E6.29445
G1 X169.404 Y104.014 E6.3244
G1 X169.344 Y104.958 E6.35587
G1 X169.294 Y105.306 E6.36756
G1 X169.398 Y105.953 E6.38935
G1 X169.45 Y106.848 E6.41917
G1 X169.39 Y107.785 E6.4504
G1 X169.354 Y108.067 E6.45986
G1 X169.153 Y109.077 E6.49411
G1 X168.895 Y109.86 E6.52153
G1 X168.79 Y110.127 E6.53107
G1 X168.362 Y111.031 E6.56434
G1 X167.927 Y111.721 E6.59147
G1 X167.763 Y111.952 E6.60089
G1 X167.227 Y112.621 E6.6294
G1 X166.442 Y113.378 E6.66567
G1 X166.223 Y113.56 E6.67514
G1 X165.577 Y114.04 E6.70191
G1 X164.719 Y114.532 E6.73481
G1 X164.461 Y114.658 E6.74436
G1 X163.754 Y114.96 E6.76993
G1 X162.743 Y115.249 E6.8049
G1 X162.44 Y115.313 E6.8152
G1 X161.526 Y115.447 E6.84593
G1 X161.502 Y115.449 E6.84673
G1 X160.551 Y115.467 E6.87836
G1 X160.265 Y115.454 E6.88788
G1 X159.526 Y115.384 E6.91257
G1 X158.772 Y115.235 E6.93814
G1 X158.3 Y115.101 E6.95446
G1 X158.126 Y115.153 E6.9605
G1 X157.102 Y115.379 E6.99537
G1 X157.075 Y115.383 E6.99628
G1 X156.278 Y115.457 E7.0229
G1 X155.995 Y115.468 E7.03232
G1 X155.093 Y115.448 E7.06233
G1 X155.069 Y115.446 E7.06313
G1 X154.128 Y115.307 E7.09477
G1 X153.849 Y115.247 E7.10426
G1 X152.974 Y115.001 E7.13449
G1 X152.482 Y115.026 E7.15088
G1 X151.713 Y115.048 E7.17647
G1 X151.092 Y115.008 E7.19716
G1 X150.238 Y114.869 E7.22594
G1 X150.064 Y114.83 E7.23187
G1 X149.889 Y114.941 E7.23876
G1 X149.124 Y115.365 E7.26786
G1 X148.389 Y115.674 E7.29437
G1 X147.866 Y115.839 E7.31261
G1 X147.395 Y115.969 E7.32887
G1 X146.644 Y116.135 E7.35445
G1 X146.085 Y116.207 E7.37319
G1 X145.154 Y116.235 E7.40417
G1 X144.66 Y116.219 E7.42061
G1 X143.536 Y116.096 E7.45822
G1 X143.504 Y116.09 E7.4593
G1 X142.505 Y115.83 E7.49364
G1 X142.048 Y115.676 E7.50967
G1 X141.102 Y115.282 E7.54376
G1 X141.072 Y115.267 E7.54487
G1 X140.402 Y114.887 E7.57049
G1 X139.784 Y114.454 E7.59559
G1 X139.129 Y114.295 E7.61801
G1 X139.029 Y114.264 E7.62149
G1 X138.847 Y114.318 E7.62781
G1 X137.83 Y114.542 E7.66244
G1 X137.803 Y114.546 E7.66335
G1 X137.006 Y114.62 E7.68997
G1 X136.723 Y114.631 E7.69939
G1 X135.795 Y114.609 E7.73027
G1 X134.878 Y114.474 E7.76109
G1 X134.595 Y114.414 E7.77072
G1 X133.699 Y114.164 E7.80166
G1 X133.676 Y114.156 E7.80247
G1 X132.829 Y113.802 E7.833
G1 X132.578 Y113.678 E7.84231
G1 X131.751 Y113.2 E7.87408
G1 X131.73 Y113.186 E7.87492
G1 X131.019 Y112.647 E7.90459
G1 X130.802 Y112.461 E7.9141
G1 X130.369 Y112.06 E7.93373
G1 X129.855 Y111.488 E7.95931
G1 X129.392 Y110.861 E7.98523
G1 X128.817 Y109.901 E8.02245
G1 X128.538 Y109.277 E8.04518
G1 X128.437 Y109.02 E8.05437
G1 X128.158 Y108.158 E8.0845
G1 X127.971 Y107.171 E8.11791
G1 X127.936 Y106.879 E8.1277
G1 X127.883 Y105.974 E8.15785
G1 X127.943 Y105.03 E8.18931
G1 X128.005 Y104.62 E8.2031
G1 X127.927 Y104.125 E8.21977
G1 X127.871 Y103.213 E8.25016
G1 X127.871 Y103.188 E8.25099
G1 X127.936 Y102.207 E8.28369
G1 X127.974 Y101.923 E8.29322
G1 X128.099 Y101.256 E8.31579
G1 X128.046 Y100.411 E8.34395
G1 X128.046 Y100.386 E8.34478
G1 X128.105 Y99.502 E8.37425
G1 X127.975 Y98.793 E8.39822
G1 X127.94 Y98.499 E8.40807
G1 X127.888 Y97.6 E8.43802
G1 X127.948 Y96.656 E8.46948
G1 X127.951 Y96.633 E8.47025
G1 X127.839 Y96.042 E8.49026
G1 X127.804 Y95.75 E8.50004
G1 X127.751 Y94.845 E8.53019
G1 X127.811 Y93.901 E8.56165
G1 X127.847 Y93.621 E8.57104
G1 X128.048 Y92.618 E8.60507
G1 X128.308 Y91.83 E8.63267
G1 X128.414 Y91.561 E8.64228
G1 X128.84 Y90.662 E8.67537
G1 X129.293 Y89.947 E8.70352
G0 F3600 X129.618 Y90.18
G1 F1500 X129.782 Y89.951 E8.71289
G1 X130.257 Y89.358 E8.73816
G1 X130.996 Y88.641 E8.77241
G1 X131.217 Y88.456 E8.78199
G1 X131.848 Y87.986 E8.80816
G1 X132.679 Y87.51 E8.84002
G1 X132.937 Y87.385 E8.84955
G1 X133.627 Y87.096 E8.87443
G1 X134.555 Y86.833 E8.90651
G1 X134.856 Y86.77 E8.91674
G1 X135.709 Y86.646 E8.94541
G1 X135.733 Y86.644 E8.94621
G1 X136.635 Y86.627 E8.97622
G1 X136.918 Y86.64 E8.98564
G1 X137.65 Y86.713 E9.01011
G1 X138.638 Y86.933 E9.04377
G1 X138.948 Y86.997 E9.0543
G1 X139.222 Y86.917 E9.0638
G1 X140.12 Y86.717 E9.09439
G1 X140.146 Y86.713 E9.09527
G1 X140.724 Y86.658 E9.11458
G1 X140.937 Y86.522 E9.12299
G1 X141.469 Y86.252 E9.14283
G1 X141.916 Y86.048 E9.15917
G1 X142.612 Y85.774 E9.18405
G1 X143.152 Y85.618 E9.20274
G1 X143.933 Y85.469 E9.22919
G1 X144.425 Y85.404 E9.2457
G1 X145.342 Y85.344 E9.27626
G1 X146.116 Y85.384 E9.30204
G1 X146.517 Y85.418 E9.31542
G1 X147.077 Y85.396 E9.33406
G1 X147.374 Y85.396 E9.34394
G1 X147.974 Y85.202 E9.36491
G1 X148.051 Y85.159 E9.36785
G1 X149.04 Y84.703 E9.40407
G1 X149.067 Y84.693 E9.40503
G1 X149.986 Y84.422 E9.4369
G1 X150.465 Y84.316 E9.45321
G1 X151.478 Y84.169 E9.48726
G1 X151.506 Y84.167 E9.48819
G1 X152.599 Y84.174 E9.52455
G1 X153.092 Y84.216 E9.541
G1 X153.833 Y84.32 E9.56589
G1 X154.67 Y84.55 E9.59476
G1 X154.944 Y84.511 E9.60397
G1 X155.846 Y84.494 E9.63397
G1 X156.129 Y84.507 E9.64339
G1 X156.861 Y84.58 E9.66786
G1 X157.849 Y84.8 E9.70153
G1 X158.114 Y84.88 E9.71073
G1 X158.443 Y84.781 E9.72216
G1 X159.331 Y84.584 E9.75241
G1 X159.357 Y84.58 E9.75329
G1 X160.15 Y84.504 E9.77979
G1 X160.434 Y84.493 E9.78924
G1 X161.334 Y84.516 E9.81918
G1 X162.18 Y84.642 E9.84763
G1 X162.463 Y84.702 E9.85725
G1 X163.311 Y84.939 E9.88654
G1 X163.334 Y84.947 E9.88735
G1 X164.124 Y85.277 E9.91582
G1 X164.374 Y85.4 E9.92509
G1 X165.227 Y85.897 E9.95793
G1 X165.831 Y86.355 E9.98314
G1 X166.047 Y86.538 E9.99255
G1 X166.628 Y87.091 E10.01923
G1 X167.264 Y87.87 E10.05268
G1 X167.43 Y88.106 E10.06228
G1 X167.834 Y88.751 E10.08759
G1 X168.231 Y89.595 E10.11861
G1 X168.333 Y89.855 E10.1279
G1 X168.554 Y90.509 E10.15086
G1 X168.774 Y91.605 E10.18804
G1 X168.809 Y91.899 E10.19789
G1 X168.858 Y92.749 E10.22621
G1 X168.802 Y93.635 E10.25573
G1 X168.719 Y94.155 E10.27325
G1 X168.803 Y94.695 E10.29143
G1 X168.852 Y95.546 E10.31978
G1 X168.795 Y96.439 E10.34954
G1 X168.733 Y96.85 E10.36336
G1 X168.839 Y97.499 E10.38523
G1 X168.888 Y98.35 E10.41359
G1 X168.831 Y99.243 E10.44335
G1 X168.796 Y99.516 E10.4525
G1 X168.896 Y100.028 E10.46985
G1 X168.931 Y100.321 E10.47967
G1 X168.98 Y101.175 E10.50812
G1 X168.923 Y102.068 E10.53788
G1 X168.851 Y102.527 E10.55333
G1 X168.955 Y103.163 E10.57477
G1 X169.004 Y104.014 E10.60312
G1 X168.947 Y104.907 E10.63288
G1 X168.888 Y105.303 E10.6462
G1 X169.001 Y106 E10.66968
G1 X169.05 Y106.848 E10.69793
G1 X168.994 Y107.734 E10.72746
G1 X168.958 Y108.016 E10.73692
G1 X168.767 Y108.972 E10.76934
G1 X168.522 Y109.714 E10.79533
G1 X168.417 Y109.981 E10.80487
G1 X168.012 Y110.837 E10.83637
G1 X167.601 Y111.489 E10.862
G1 X167.437 Y111.72 E10.87143
G1 X166.929 Y112.355 E10.89847
G1 X166.186 Y113.071 E10.93279
G1 X165.967 Y113.253 E10.94226
G1 X165.355 Y113.707 E10.96761
G1 X164.544 Y114.173 E10.99872
G1 X164.286 Y114.299 E11.00827
G1 X163.597 Y114.591 E11.03316
G1 X162.661 Y114.858 E11.06553
G1 X162.358 Y114.922 E11.07583
G1 X161.492 Y115.049 E11.10494
