;FLAVOR:Marlin
;TIME:2652
;Filament used: 0.665079m
;Layer height: 0.1
;MINX:134.212
;MINY:44.768
;MINZ:0.2
;MAXX:176.711
;MAXY:78.05
;MAXZ:8
;Generated with Cura_SteamEngine 4.11.0
M140 S75
M105
M190 S75
M104 S230
M105
M109 S230
M82 ;absolute extrusion mode
; -- START GCODE -- 
M4002 P1 ;set heat program 1 
M1203 A88 D66 F1200 ;set higher accel and decel 
G28 X0 Y0 ;home XY 
G28 Z0 ;home Z
G91 ;set relative movements 
G0 F100 ;speed 100mm/sec 
G0 E20 ;extrude 20mm of filament
G90 ;absolute movements 
G0 X18 ;account for Craftbot offset
G92 X0 Y0 ;set new X and Y
; -- end of START GCODE --
G92 E0
G92 E0
G1 F1800 E-0.6
;LAYER_COUNT:79
;LAYER:0
M107
G0 F3600 X134.795 Y53.102 Z0.2
;TYPE:SKIRT
G1 F1800 E0
G1 F900 X134.9 Y52.835 E0.00954
G1 X135.351 Y51.884 E0.04455
G1 X135.809 Y51.157 E0.07313
G1 X135.973 Y50.926 E0.08255
G1 X136.537 Y50.221 E0.11258
G1 X137.365 Y49.423 E0.15083
G1 X137.584 Y49.241 E0.1603
G1 X138.263 Y48.736 E0.18844
G1 X139.188 Y48.207 E0.22388
G1 X139.448 Y48.081 E0.23349
G1 X140.176 Y47.773 E0.25978
G1 X141.252 Y47.465 E0.29701
G1 X141.553 Y47.402 E0.30724
G1 X142.503 Y47.264 E0.33917
G1 X142.527 Y47.262 E0.33997
G1 X143.529 Y47.243 E0.3733
G1 X143.815 Y47.256 E0.38282
G1 X144.631 Y47.336 E0.41009
G1 X145.745 Y47.586 E0.44807
G1 X145.858 Y47.564 E0.4519
G1 X146.858 Y47.342 E0.48597
G1 X147.331 Y47.295 E0.50177
G1 X147.975 Y46.95 E0.52607
G1 X148.418 Y46.746 E0.5423
G1 X149.152 Y46.453 E0.56858
G1 X149.817 Y46.257 E0.59164
G1 X150.691 Y46.091 E0.62123
G1 X151.185 Y46.026 E0.6378
G1 X152.203 Y45.959 E0.67173
G1 X153.019 Y45.999 E0.69891
G1 X153.308 Y46.037 E0.7086
G1 X153.938 Y46.011 E0.72957
G1 X154.159 Y45.987 E0.73697
G1 X154.52 Y45.876 E0.74953
G1 X155.228 Y45.526 E0.7758
G1 X155.649 Y45.358 E0.79087
G1 X156.676 Y45.056 E0.82648
G1 X157.156 Y44.95 E0.84283
G1 X158.282 Y44.786 E0.88067
G1 X159.1 Y44.768 E0.90789
G1 X160.021 Y44.834 E0.9386
G1 X160.804 Y44.941 E0.96488
G1 X161.343 Y45.063 E0.98326
G1 X161.601 Y45.147 E0.99229
G1 X161.737 Y45.129 E0.99685
G1 X162.738 Y45.11 E1.03015
G1 X163.025 Y45.123 E1.03971
G1 X163.842 Y45.203 E1.06701
G1 X164.956 Y45.453 E1.10498
G1 X165.069 Y45.431 E1.10881
G1 X166.069 Y45.209 E1.14288
G1 X166.095 Y45.205 E1.14376
G1 X166.979 Y45.12 E1.17329
G1 X167.263 Y45.109 E1.18275
G1 X168.241 Y45.132 E1.21528
G1 X169.206 Y45.275 E1.24773
G1 X169.489 Y45.335 E1.25735
G1 X170.433 Y45.598 E1.28995
G1 X170.456 Y45.606 E1.29076
G1 X171.349 Y45.98 E1.32296
G1 X171.598 Y46.103 E1.33219
G1 X172.353 Y46.529 E1.36103
G1 X173.193 Y47.147 E1.39571
G1 X173.41 Y47.33 E1.40515
G1 X174.18 Y48.075 E1.44079
G1 X174.198 Y48.095 E1.44168
G1 X174.766 Y48.805 E1.47192
G1 X174.931 Y49.038 E1.48142
G1 X175.48 Y49.938 E1.51648
G1 X175.839 Y50.721 E1.54513
G1 X175.939 Y50.976 E1.55424
G1 X176.208 Y51.794 E1.58288
G1 X176.429 Y52.927 E1.62128
G1 X176.464 Y53.222 E1.63116
G1 X176.518 Y54.164 E1.66254
G1 X176.456 Y55.148 E1.69533
G1 X176.393 Y55.568 E1.70946
G1 X176.457 Y56.012 E1.72438
G1 X176.512 Y56.961 E1.756
G1 X176.448 Y57.956 E1.78916
G1 X176.407 Y58.261 E1.79939
G1 X176.493 Y58.816 E1.81807
G1 X176.548 Y59.765 E1.84969
G1 X176.484 Y60.76 E1.88285
G1 X176.546 Y61.307 E1.90116
G1 X176.582 Y61.595 E1.91082
G1 X176.642 Y62.562 E1.94304
G1 X176.642 Y62.587 E1.94387
G1 X176.573 Y63.621 E1.97834
G1 X176.534 Y63.91 E1.98804
G1 X176.606 Y64.434 E2.00563
G1 X176.666 Y65.401 E2.03786
G1 X176.666 Y65.426 E2.03869
G1 X176.597 Y66.46 E2.07315
G1 X176.569 Y66.671 E2.08023
G1 X176.656 Y67.318 E2.10195
G1 X176.711 Y68.264 E2.13346
G1 X176.647 Y69.259 E2.16663
G1 X176.611 Y69.539 E2.17602
G1 X176.4 Y70.596 E2.21187
G1 X176.126 Y71.426 E2.24094
G1 X176.02 Y71.695 E2.25055
G1 X175.571 Y72.641 E2.28538
G1 X175.095 Y73.395 E2.31504
G1 X174.931 Y73.624 E2.32441
G1 X174.403 Y74.282 E2.35247
G1 X173.58 Y75.081 E2.39062
G1 X173.359 Y75.266 E2.4002
G1 X172.658 Y75.789 E2.42929
G1 X171.753 Y76.308 E2.46399
G1 X171.497 Y76.433 E2.47347
G1 X170.771 Y76.743 E2.49972
G1 X169.687 Y77.056 E2.53725
G1 X169.384 Y77.12 E2.54755
G1 X168.42 Y77.261 E2.57996
G1 X168.396 Y77.263 E2.58076
G1 X167.394 Y77.282 E2.61409
G1 X167.108 Y77.269 E2.62361
G1 X166.292 Y77.189 E2.65088
G1 X165.159 Y76.933 E2.68952
G1 X165.099 Y76.951 E2.6916
G1 X164.021 Y77.19 E2.72832
G1 X163.994 Y77.194 E2.72923
G1 X163.154 Y77.272 E2.75729
G1 X162.871 Y77.283 E2.76671
G1 X161.892 Y77.26 E2.79928
G1 X160.927 Y77.117 E2.83173
G1 X160.644 Y77.057 E2.84135
G1 X159.752 Y76.808 E2.87215
G1 X159.375 Y76.839 E2.88473
G1 X158.586 Y76.863 E2.91099
G1 X157.911 Y76.821 E2.93348
G1 X156.998 Y76.671 E2.96425
G1 X156.961 Y76.695 E2.96572
G1 X156.048 Y77.193 E3.00031
G1 X155.289 Y77.499 E3.02753
G1 X154.353 Y77.772 E3.05996
G1 X153.582 Y77.943 E3.08623
G1 X152.983 Y78.02 E3.10631
G1 X152.003 Y78.05 E3.13892
G1 X151.508 Y78.034 E3.1554
G1 X150.721 Y77.968 E3.18166
G1 X150.291 Y77.898 E3.19615
G1 X149.218 Y77.617 E3.23304
G1 X148.756 Y77.46 E3.24927
G1 X147.778 Y77.052 E3.28452
G1 X147.748 Y77.037 E3.28563
G1 X147.06 Y76.648 E3.31192
G1 X146.623 Y76.349 E3.32953
G1 X146.481 Y76.245 E3.33539
G1 X145.891 Y76.097 E3.35562
G1 X145.858 Y76.107 E3.35677
G1 X144.757 Y76.353 E3.39429
G1 X144.73 Y76.357 E3.3952
G1 X143.884 Y76.435 E3.42345
G1 X143.595 Y76.446 E3.43307
G1 X142.622 Y76.423 E3.46544
G1 X142.599 Y76.421 E3.46621
G1 X141.63 Y76.275 E3.4988
G1 X141.324 Y76.209 E3.50922
G1 X140.562 Y76.003 E3.53547
G1 X139.492 Y75.566 E3.57391
G1 X139.241 Y75.441 E3.58324
G1 X138.324 Y74.904 E3.61858
G1 X137.649 Y74.391 E3.64678
G1 X137.431 Y74.206 E3.65629
G1 X136.782 Y73.588 E3.6861
G1 X136.095 Y72.748 E3.72219
G1 X135.928 Y72.512 E3.73181
G1 X135.505 Y71.845 E3.75808
G1 X135.307 Y71.472 E3.77212
G1 X135.017 Y70.817 E3.79595
G1 X134.918 Y70.563 E3.80501
G1 X134.632 Y69.676 E3.83601
G1 X134.434 Y68.629 E3.87145
G1 X134.399 Y68.335 E3.8813
G1 X134.344 Y67.39 E3.91278
G1 X134.407 Y66.402 E3.94571
G1 X134.46 Y66.033 E3.95811
G1 X134.388 Y65.547 E3.97445
G1 X134.333 Y64.601 E4.00597
G1 X134.397 Y63.606 E4.03913
G1 X134.433 Y63.326 E4.04852
G1 X134.559 Y62.694 E4.06995
G1 X134.508 Y61.8 E4.09974
G1 X134.562 Y60.952 E4.128
G1 X134.443 Y60.295 E4.15021
G1 X134.407 Y60.006 E4.15989
G1 X134.347 Y59.042 E4.19202
G1 X134.347 Y59.017 E4.19285
G1 X134.41 Y58.07 E4.22442
G1 X134.302 Y57.5 E4.24371
G1 X134.267 Y57.206 E4.25356
G1 X134.212 Y56.261 E4.28504
G1 X134.275 Y55.273 E4.31797
G1 X134.311 Y54.991 E4.32743
G1 X134.523 Y53.927 E4.36351
G1 X134.795 Y53.102 E4.3924
G0 F3600 X135.167 Y53.249
G1 F900 X135.272 Y52.982 E4.40195
G1 X135.7 Y52.078 E4.43521
G1 X136.135 Y51.388 E4.46234
G1 X136.299 Y51.157 E4.47176
G1 X136.835 Y50.488 E4.50028
G1 X137.62 Y49.731 E4.53655
G1 X137.839 Y49.549 E4.54602
G1 X138.485 Y49.069 E4.57279
G1 X139.363 Y48.567 E4.60642
G1 X139.623 Y48.441 E4.61603
G1 X140.331 Y48.142 E4.6416
G1 X141.334 Y47.857 E4.67628
G1 X141.635 Y47.794 E4.68651
G1 X142.536 Y47.663 E4.71679
G1 X142.56 Y47.661 E4.71759
G1 X143.511 Y47.643 E4.74922
G1 X143.797 Y47.656 E4.75875
G1 X144.572 Y47.732 E4.78465
G1 X145.629 Y47.968 E4.82067
G1 X145.763 Y48.008 E4.82532
G1 X145.97 Y47.948 E4.83249
G1 X146.919 Y47.737 E4.86482
G1 X146.945 Y47.733 E4.8657
G1 X147.46 Y47.684 E4.8829
G1 X148.143 Y47.313 E4.90876
G1 X148.586 Y47.109 E4.92498
G1 X149.3 Y46.824 E4.95055
G1 X149.914 Y46.645 E4.97182
G1 X150.744 Y46.487 E4.99992
G1 X151.238 Y46.422 E5.01649
G1 X152.203 Y46.359 E5.04866
G1 X152.998 Y46.399 E5.07513
G1 X153.36 Y46.434 E5.08723
G1 X153.938 Y46.411 E5.10647
G1 X154.164 Y46.411 E5.11398
G1 X154.677 Y46.246 E5.13191
G1 X154.715 Y46.225 E5.13335
G1 X155.761 Y45.743 E5.17166
G1 X155.788 Y45.733 E5.17262
G1 X156.762 Y45.446 E5.20639
G1 X157.242 Y45.34 E5.22274
G1 X158.311 Y45.185 E5.25866
G1 X159.108 Y45.168 E5.28518
G1 X159.987 Y45.233 E5.31449
G1 X160.749 Y45.338 E5.34008
G1 X161.242 Y45.45 E5.35689
G1 X161.567 Y45.556 E5.36826
G1 X161.77 Y45.528 E5.37508
G1 X162.72 Y45.51 E5.40668
G1 X163.007 Y45.523 E5.41624
G1 X163.783 Y45.599 E5.44217
G1 X164.84 Y45.835 E5.47819
G1 X164.974 Y45.875 E5.48284
G1 X165.181 Y45.815 E5.49001
G1 X166.13 Y45.604 E5.52235
G1 X166.156 Y45.6 E5.52322
G1 X166.995 Y45.52 E5.55125
G1 X167.279 Y45.509 E5.56071
G1 X168.206 Y45.531 E5.59155
G1 X169.123 Y45.666 E5.62238
G1 X169.406 Y45.726 E5.632
G1 X170.302 Y45.976 E5.66294
G1 X170.325 Y45.984 E5.66375
G1 X171.171 Y46.338 E5.69425
G1 X171.42 Y46.461 E5.70349
G1 X172.138 Y46.867 E5.73092
G1 X172.936 Y47.453 E5.76385
G1 X173.153 Y47.636 E5.77329
G1 X173.882 Y48.343 E5.80707
G1 X173.9 Y48.363 E5.80796
G1 X174.439 Y49.036 E5.83664
G1 X174.604 Y49.269 E5.84614
G1 X175.126 Y50.123 E5.87943
G1 X175.466 Y50.867 E5.90663
G1 X175.566 Y51.122 E5.91574
G1 X175.822 Y51.899 E5.94295
G1 X176.031 Y52.974 E5.97938
G1 X176.066 Y53.269 E5.98926
G1 X176.118 Y54.164 E6.01908
G1 X176.059 Y55.098 E6.0502
G1 X175.986 Y55.567 E6.06599
G1 X176.06 Y56.059 E6.08254
G1 X176.112 Y56.961 E6.11259
G1 X176.052 Y57.905 E6.14405
G1 X176.001 Y58.261 E6.15601
G1 X176.096 Y58.863 E6.17628
G1 X176.148 Y59.765 E6.20633
G1 X176.088 Y60.709 E6.23779
G1 X176.06 Y60.923 E6.24497
G1 X176.185 Y61.644 E6.26931
G1 X176.242 Y62.562 E6.2999
G1 X176.242 Y62.587 E6.30073
G1 X176.177 Y63.568 E6.33343
G1 X176.122 Y63.944 E6.34607
G1 X176.209 Y64.483 E6.36423
G1 X176.266 Y65.401 E6.39482
G1 X176.266 Y65.426 E6.39565
G1 X176.201 Y66.407 E6.42835
G1 X176.165 Y66.673 E6.43728
G1 X176.259 Y67.365 E6.46051
G1 X176.311 Y68.264 E6.49046
G1 X176.251 Y69.208 E6.52192
G1 X176.215 Y69.488 E6.53131
G1 X176.014 Y70.491 E6.56533
G1 X175.754 Y71.279 E6.59293
G1 X175.648 Y71.548 E6.60255
G1 X175.222 Y72.447 E6.63564
G1 X174.769 Y73.162 E6.66379
G1 X174.605 Y73.391 E6.67316
G1 X174.104 Y74.016 E6.6998
G1 X173.323 Y74.774 E6.736
G1 X173.102 Y74.959 E6.74558
G1 X172.436 Y75.456 E6.77322
G1 X171.578 Y75.949 E6.80613
G1 X171.322 Y76.074 E6.81561
G1 X170.614 Y76.375 E6.8412
G1 X169.604 Y76.664 E6.87614
G1 X169.301 Y76.728 E6.88644
G1 X168.387 Y76.862 E6.91716
G1 X168.363 Y76.864 E6.91796
G1 X167.412 Y76.882 E6.9496
G1 X167.126 Y76.869 E6.95912
G1 X166.351 Y76.793 E6.98502
G1 X165.287 Y76.554 E7.02129
G1 X165.161 Y76.516 E7.02567
G1 X164.986 Y76.568 E7.03174
G1 X163.962 Y76.794 E7.06662
G1 X163.935 Y76.798 E7.06753
G1 X163.138 Y76.872 E7.09415
G1 X162.855 Y76.883 E7.10357
G1 X161.927 Y76.861 E7.13445
G1 X161.01 Y76.726 E7.16527
G1 X160.727 Y76.666 E7.1749
G1 X159.831 Y76.416 E7.20583
G1 X159.343 Y76.441 E7.22209
G1 X158.574 Y76.463 E7.24767
G1 X157.953 Y76.423 E7.26837
G1 X157.098 Y76.283 E7.29719
G1 X156.925 Y76.244 E7.30309
G1 X156.747 Y76.357 E7.3101
G1 X155.88 Y76.83 E7.34295
G1 X155.854 Y76.842 E7.3439
G1 X155.14 Y77.127 E7.36947
G1 X154.247 Y77.387 E7.4004
G1 X153.496 Y77.552 E7.42598
G1 X152.946 Y77.622 E7.44442
G1 X152.016 Y77.65 E7.47536
G1 X151.521 Y77.634 E7.49184
G1 X150.396 Y77.511 E7.52948
G1 X150.364 Y77.505 E7.53056
G1 X149.347 Y77.238 E7.56553
G1 X148.885 Y77.081 E7.58176
G1 X147.957 Y76.694 E7.6152
G1 X147.927 Y76.679 E7.61632
G1 X147.257 Y76.299 E7.64194
G1 X146.643 Y75.869 E7.66687
G1 X145.989 Y75.71 E7.68926
G1 X145.89 Y75.68 E7.6927
G1 X145.743 Y75.724 E7.6978
G1 X144.698 Y75.957 E7.73341
G1 X144.671 Y75.961 E7.73432
G1 X143.868 Y76.036 E7.76114
G1 X143.579 Y76.047 E7.77076
G1 X142.634 Y76.022 E7.8022
G1 X141.715 Y75.884 E7.83311
G1 X141.409 Y75.818 E7.84352
G1 X140.666 Y75.617 E7.86912
G1 X139.67 Y75.208 E7.90494
G1 X139.419 Y75.083 E7.91426
G1 X138.549 Y74.573 E7.9478
G1 X137.908 Y74.086 E7.97458
G1 X137.69 Y73.901 E7.98409
G1 X137.073 Y73.314 E8.01241
G1 X136.421 Y72.516 E8.04669
G1 X136.254 Y72.28 E8.0563
G1 X135.676 Y71.315 E8.09372
G1 X135.389 Y70.671 E8.11717
G1 X135.29 Y70.417 E8.12623
G1 X135.019 Y69.575 E8.15565
G1 X134.831 Y68.582 E8.18927
G1 X134.796 Y68.288 E8.19911
G1 X134.744 Y67.39 E8.22903
G1 X134.804 Y66.453 E8.26026
G1 X134.867 Y66.035 E8.27432
G1 X134.785 Y65.5 E8.29232
G1 X134.733 Y64.601 E8.32227
G1 X134.793 Y63.657 E8.35373
G1 X134.829 Y63.377 E8.36312
G1 X134.962 Y62.711 E8.38571
G1 X134.908 Y61.823 E8.4153
G1 X134.908 Y61.8 E8.41607
G1 X134.967 Y60.871 E8.44703
G1 X134.84 Y60.246 E8.46824
G1 X134.804 Y59.957 E8.47793
G1 X134.747 Y59.042 E8.50842
G1 X134.747 Y59.017 E8.50925
G1 X134.811 Y58.046 E8.54162
G1 X134.699 Y57.453 E8.56169
G1 X134.664 Y57.159 E8.57154
G1 X134.612 Y56.261 E8.60145
G1 X134.672 Y55.324 E8.63268
G1 X134.708 Y55.042 E8.64214
G1 X134.909 Y54.032 E8.67639
G1 X135.167 Y53.249 E8.70381
G0 F3600 X135.54 Y53.395
G1 F900 X135.645 Y53.128 E8.71335
G1 X136.05 Y52.272 E8.74485
G1 X136.461 Y51.62 E8.77048
G1 X136.625 Y51.389 E8.7799
G1 X137.133 Y50.754 E8.80695
G1 X137.876 Y50.038 E8.84127
G1 X138.095 Y49.856 E8.85074
G1 X138.707 Y49.402 E8.87609
G1 X139.537 Y48.927 E8.90789
G1 X139.797 Y48.801 E8.9175
G1 X140.487 Y48.511 E8.9424
G1 X141.416 Y48.248 E8.97451
G1 X141.717 Y48.185 E8.98474
G1 X142.57 Y48.061 E9.01341
G1 X142.594 Y48.059 E9.01421
G1 X143.493 Y48.042 E9.04411
G1 X143.779 Y48.055 E9.05364
G1 X144.514 Y48.128 E9.0782
G1 X145.513 Y48.351 E9.11225
G1 X145.808 Y48.412 E9.12227
G1 X146.082 Y48.332 E9.13176
G1 X146.98 Y48.132 E9.16236
G1 X147.006 Y48.128 E9.16324
G1 X147.606 Y48.07 E9.18328
G1 X148.31 Y47.677 E9.2101
G1 X148.753 Y47.473 E9.22632
G1 X149.448 Y47.197 E9.25119
G1 X150.011 Y47.033 E9.2707
G1 X150.796 Y46.884 E9.29727
G1 X151.29 Y46.819 E9.31385
G1 X152.203 Y46.759 E9.34428
G1 X152.977 Y46.799 E9.37006
G1 X153.412 Y46.831 E9.38456
G1 X153.938 Y46.811 E9.40207
G1 X154.234 Y46.811 E9.41192
G1 X154.834 Y46.617 E9.43289
G1 X154.911 Y46.574 E9.43582
G1 X155.9 Y46.118 E9.47204
G1 X155.927 Y46.108 E9.473
G1 X156.849 Y45.837 E9.50496
G1 X157.329 Y45.731 E9.52131
G1 X158.339 Y45.584 E9.55526
G1 X158.367 Y45.582 E9.55619
G1 X159.461 Y45.589 E9.59258
G1 X159.953 Y45.631 E9.60901
G1 X160.694 Y45.735 E9.63389
G1 X161.53 Y45.965 E9.66273
G1 X161.804 Y45.926 E9.67194
G1 X162.702 Y45.909 E9.70181
G1 X162.989 Y45.922 E9.71136
G1 X163.725 Y45.995 E9.73596
G1 X164.724 Y46.218 E9.77001
G1 X165.019 Y46.279 E9.78003
G1 X165.293 Y46.199 E9.78952
G1 X166.191 Y45.999 E9.82012
G1 X166.217 Y45.995 E9.821
G1 X167.01 Y45.919 E9.84749
G1 X167.294 Y45.908 E9.85695
G1 X168.194 Y45.931 E9.88689
G1 X169.04 Y46.057 E9.91534
G1 X169.323 Y46.117 E9.92496
G1 X170.171 Y46.354 E9.95425
G1 X170.194 Y46.362 E9.95506
G1 X170.994 Y46.697 E9.9839
G1 X171.243 Y46.82 E9.99314
G1 X171.923 Y47.204 E10.01911
G1 X172.678 Y47.759 E10.05028
G1 X172.895 Y47.942 E10.05972
G1 X173.585 Y48.61 E10.09166
G1 X173.603 Y48.63 E10.09256
G1 X174.113 Y49.268 E10.11972
G1 X174.278 Y49.501 E10.12922
G1 X174.771 Y50.308 E10.16067
G1 X175.094 Y51.013 E10.18647
G1 X175.194 Y51.268 E10.19558
G1 X175.436 Y52.004 E10.22134
G1 X175.634 Y53.021 E10.25581
G1 X175.669 Y53.316 E10.26569
G1 X175.718 Y54.164 E10.29394
G1 X175.662 Y55.047 E10.32337
G1 X175.579 Y55.565 E10.34081
G1 X175.663 Y56.107 E10.35906
G1 X175.712 Y56.961 E10.38751
G1 X175.655 Y57.854 E10.41727
G1 X175.594 Y58.26 E10.43092
G1 X175.699 Y58.911 E10.45286
G1 X175.748 Y59.765 E10.48131
G1 X175.691 Y60.658 E10.51107
G1 X175.656 Y60.933 E10.52029
G1 X175.788 Y61.694 E10.54598
G1 X175.842 Y62.562 E10.5749
G1 X175.842 Y62.587 E10.57573
G1 X175.78 Y63.515 E10.60667
G1 X175.715 Y63.944 E10.6211
G1 X175.812 Y64.533 E10.64095
G1 X175.866 Y65.401 E10.66988
G1 X175.866 Y65.426 E10.67071
G1 X175.804 Y66.354 E10.70165
G1 X175.749 Y66.729 E10.71425
G1 X175.862 Y67.413 E10.73731
G1 X175.911 Y68.264 E10.76566
G1 X175.854 Y69.157 E10.79542
G1 X175.818 Y69.437 E10.80481
G1 X175.628 Y70.386 E10.837
G1 X175.382 Y71.132 E10.86313
G1 X175.276 Y71.401 E10.87275
G1 X174.872 Y72.253 E10.90411
G1 X174.444 Y72.929 E10.93072
G1 X174.28 Y73.158 E10.94009
G1 X173.805 Y73.751 E10.96536
G1 X173.066 Y74.468 E10.9996
G1 X172.845 Y74.653 E11.00919
G1 X172.214 Y75.123 E11.03536
G1 X171.402 Y75.589 E11.0665
G1 X171.146 Y75.714 E11.07597
G1 X170.458 Y76.006 E11.10083
G1 X169.522 Y76.273 E11.13321
G1 X169.219 Y76.337 E11.14351
G1 X168.353 Y76.464 E11.17262
G1 X168.329 Y76.466 E11.17342
G1 X167.43 Y76.483 E11.20332
G1 X167.144 Y76.47 E11.21285
G1 X166.409 Y76.397 E11.23741
G1 X165.403 Y76.172 E11.2717
G1 X165.148 Y76.102 E11.2805
G1 X164.872 Y76.184 E11.29007
